X:1
T:Eddie Moloney's
M:4/4
L:1/8
R:reel
K:Dmaj
|:dF~F2 ~A3B|defd egfe|dF~F2 ~A3d|BE~E2 GABc:|
d2dF A2FA|defd egfe|d2dF A2FA|BE~E2 GABc|
d2dF ADFA|defd ~e3f|dedB A2FA|Be~e2 gefe|]

